src/images/quotes.svg

<svg width="88" height="73" viewBox="0 0 88 73" fill="none" xmlns="http://www.w3.org/2000/svg">
<g opacity="0.4">
<path d="M19.9692 28.5822C21.1011 21.4678 29.9941 13.8683 36.9468 13.7067C37.4319 13.7067 37.9169 13.545 38.2403 13.2216C38.5637 13.0599 38.8871 12.8982 39.0488 12.4131C41.4741 7.88578 40.1806 4.32857 36.1383 1.41813C31.4493 -1.97738 24.0115 1.41813 20.2926 4.49026C10.9145 12.2514 1.37475 25.6715 1.85982 38.4454C0.242913 47.0153 0.566295 56.2314 2.99166 63.8309C4.60857 68.6816 9.29761 71.107 14.1483 71.4304C18.9991 71.754 29.0239 73.209 33.3896 70.2988C37.7552 67.3881 38.0786 61.7289 38.5637 56.8784C39.0488 51.5426 40.504 41.5175 35.9766 37.3136C31.4493 33.2713 18.514 37.6369 19.9692 28.5822Z" fill="#C10023"/>
<path d="M67.3875 28.5817C68.5193 21.4673 77.412 13.8679 84.365 13.7062C84.8501 13.7062 85.3352 13.5445 85.6586 13.2211C85.9822 13.0594 86.3053 12.8977 86.4673 12.4126C88.8926 7.88529 87.5991 4.32808 83.5568 1.41765C78.8678 -1.97787 71.43 1.41765 67.7108 4.48978C58.3328 12.2509 48.793 25.6713 49.2781 38.4449C47.6611 47.0148 47.9845 56.2309 50.4096 63.8304C52.0265 68.6811 56.7156 71.1065 61.5666 71.4299C66.4173 71.7535 76.4422 73.2085 80.8078 70.2983C85.1732 67.3876 85.4969 61.7284 85.9819 56.8779C86.467 51.5421 87.9222 41.517 83.3949 37.3131C78.8675 33.2708 65.7706 37.6364 67.3875 28.5817Z" fill="#C10023"/>
</g>
</svg>

<svg xmlns="http://www.w3.org/2000/svg" width="88" height="73" fill="none"><g fill="#C10023" opacity=".4"><path d="M19.97 28.582c1.131-7.114 10.024-14.714 16.977-14.875.485 0 .97-.162 1.293-.485.324-.162.647-.324.809-.809 2.425-4.527 1.132-8.084-2.91-10.995-4.69-3.395-12.128 0-15.846 3.072C10.915 12.251 1.375 25.672 1.86 38.445.243 47.015.566 56.231 2.992 63.831c1.617 4.85 6.306 7.276 11.156 7.6s14.876 1.778 19.242-1.132c4.365-2.91 4.689-8.57 5.174-13.42.485-5.336 1.94-15.361-2.587-19.565-4.528-4.043-17.463.323-16.008-8.732M67.388 28.582c1.131-7.115 10.024-14.714 16.977-14.876.485 0 .97-.162 1.294-.485.323-.162.646-.323.808-.808 2.426-4.528 1.132-8.085-2.91-10.995-4.69-3.396-12.127 0-15.846 3.072-9.378 7.76-18.918 21.181-18.433 33.955-1.617 8.57-1.294 17.786 1.132 25.385 1.617 4.851 6.306 7.276 11.157 7.6 4.85.323 14.875 1.778 19.24-1.132 4.366-2.91 4.69-8.57 5.175-13.42.485-5.336 1.94-15.361-2.587-19.565-4.527-4.042-17.624.323-16.007-8.731"/></g></svg>
